icon/ir/panorama-enlarge.svg

<svg stroke-width="1.5" viewBox="0 0 24 24" fill="none" xmlns="http://www.w3.org/2000/svg" height="1em" width="1em">
  <path d="M12 5C14.9952 5 19.2354 5.69203 20.5764 5.92472C20.8312 5.96893 21.0235 6.17124 21.056 6.42778C21.1866 7.45584 21.5 10.1194 21.5 12C21.5 13.8806 21.1866 16.5442 21.056 17.5722C21.0235 17.8288 20.8312 18.0311 20.5764 18.0753C19.2354 18.308 14.9952 19 12 19C9.00483 19 4.76463 18.308 3.4236 18.0753C3.16881 18.0311 2.97653 17.8288 2.94395 17.5722C2.81339 16.5442 2.5 13.8806 2.5 12C2.5 10.1194 2.81339 7.45584 2.94395 6.42778C2.97653 6.17124 3.16882 5.96892 3.42361 5.92472C4.76463 5.69203 9.00483 5 12 5Z" stroke="currentColor" stroke-linecap="round" stroke-linejoin="round"/>
</svg>

<svg width="24" height="24" stroke-width="1.5" fill="none" xmlns="http://www.w3.org/2000/svg"><path d="M12 5c2.995 0 7.235.692 8.576.925a.581.581 0 0 1 .48.503c.13 1.028.444 3.691.444 5.572 0 1.88-.313 4.544-.444 5.572a.581.581 0 0 1-.48.503c-1.34.233-5.58.925-8.576.925-2.995 0-7.235-.692-8.576-.925a.582.582 0 0 1-.48-.503C2.814 16.544 2.5 13.881 2.5 12c0-1.88.313-4.544.444-5.572a.582.582 0 0 1 .48-.503C4.764 5.692 9.004 5 12 5Z" stroke="currentColor" stroke-linecap="round" stroke-linejoin="round"/></svg>
